X: 1
T: the Point Road
C: Ian MacLeod
R: jig
Z: 2013 John Chambers <jc:trillian.mit.edu>
B: Christine Martin "Ho-Ro-Gheallaidh" "Session Tunes for Scottish Fiddlers" v.3 2008
M: 6/8
L: 1/8
K: D
g/f/ |\
"A7"eAA eAA | geg gab | "D"afd g2b | afd g2f |\
"A7"eAA geg | eAA gab | "D"afd gfe | f2d [1 d2 :|2 "D"dcB |]
"D"A2d dcd | fae fdB | "A"caa ^ga=g | "A7"afg ecA |\
"Bm"Bff cfd | fge fdB | "A"caa ^gaf | "A7"gec "D"d2c |]
"Bm"Bff cfd | fge fdB | "A"A2c BdB | caf gec |\
"D"Add dcd | "D"f/g/ae fdB | "A"caa ^gaf | "A7"gec "D"d2 |]
